X:1
T:In dir wil ich
T:André Vierendeels
T:Melody by Georg Vogler (1625) (Soprano voice)
T:Source : Catechismus---Würzburg---J.Volmari---1652. Editor : André Vierendeels (09/10/17).
T:Notes : Original clef : C1, other voices supplied editorially Original note values have been halved Text Middle German
T:In dir wil ich
T:©
T:©
C:André Vierendeels
Z:©
%%score [ 1 2 3 ]
L:1/8
Q:1/4=120
M:2/2
K:C
V:1 treble nm="Soprano" snm="S"
V:2 treble-8 nm="Tenor" snm="T"
V:3 bass nm="Bass" snm="B"
V:1
"^1)" c4 B4 | A4 c2 B2 | A2 A2 G4 | z4 G4 | A2 c2 B4 | G2 c2 B4 | G4 z4 | A4 c2 B2 | A4 F4 | %9
w: In dir|wil ich in-|brün- stig- lich|O|hei- ligs Creutz|er- frew- we|mich:|ich wil an-|seh- en|
w: Am Creutz|der a- po-|sto- lisch Christ,|ausz-|wen- dig zu|er- ken- nen|ist:|mit die- sen|Zei- chen|
 E2 D2 C4 | z4 C4 | E4 F4 | G4 E4 | F2 F2 E4 | z4 E4 | G2 A2 B4 | G4 c4 | A4 G4 | z4 G4 | %19
w: un- ver- wend,|die|Wun- den|dei- ner|Füsz und Händ,|will|prey- sen dein|Barm- her-|tzig- keit,|O|
w: al- le Stund,|be-|zeich- net|er Stirn,|Hertz und Mund,|da-|mit ihn Gott|vor al-|ler Gfahr,|gantz|
 c2 c2 A2 G2 | c4 B4 | A8 |] %22
w: Je- su bisz in|E- wig-|keit.|
w: gnä- dig- li- chen|woll be-|wahr.|
V:2
"^2)""^1)" c4 d4 | d4 c2 d2 | f2 f2 d4 | z4 B4 | d2 e2 d4 | d2 c2 d4 | d4 z4 | f4 e2 d2 | f4 d4 | %9
w: In dir|wil ich in-|brün- stig- lich|O|hei- ligs Creutz|er- fre- we|mich:|ich wil an-|seh- en|
w: Wie- wol|das Creutz ha-|ben be- racht,|ver-|speyt, ver- spot-|tet und ver-|lacht|die Hey- den,|und das|
 c2 A2 G4 | z4 G4 | c4 A4 | B4 c4 | A2 A2 G4 | z4 G4 | B2 A2 d4 | d4 e4 | d4 d4 | z4 d4 | %19
w: un- ver- wend,|die|Wun- den|dei- ner|Füsz und Händ,|will|prey- sen dein|Barm- her-|tzig- keit,|O|
w: Ju- den- thumb,|die|Ket- zer|all in|ei- ner Summ:|gleich-|wol ohn Forcht|und un-|ver- zaat,|der|
 c2 e2 d2 d2 | e4 g4 | ^f8 |] %22
w: Je- su bisz in|E- wig-|keit.|
w: wah- re Christ disz|Zei- chen|tragt.|
V:3
"^3)""^1)""^4)" C,4 G,,4 | D,4 C,2 G,,2 | D,2 D,2 G,,4 | z4 G,,4 | D,2 C,2 D,4 | G,,2 C,2 G,,4 | %6
w: In dir|wil ich in-|brün- stig- lich|O|hei- ligs Creutz|er- fre- we|
w: Chri- sti|Ge- burt und|Ley- den gut|disz|Zei- chen uns|für- bil- den|
 G,,4 z4 | D,4 C,2 G,,2 | D,4 D,4 | A,,2 D,2 C,4 | z4 C,4 | C,4 D,4 | G,4 C,4 | F,2 F,2 C,4 | %14
w: mich:|ich wil an-|seh- en|un- ver- wend,|die|Wun- den|dei- ner|Füsz und Händ,|
w: thut:|die hoch- hei-|lig Drey-|fal- tig- keit,|drey|Per- soh-|nen in|Ein- ig- keit,|
 z4 C,4 | G,2 D,2 G,4 | G,4 C,4 | D,4 G,,4 | z4 B,,4 | C,2 C,2 D,2 G,,2 | C,4 G,,4 | D,8 |] %22
w: will|prey- sen dein|Barm- her-|tzig- keit,|O|Je- su bisz in|E- wig-|keit.|
w: kufft-|al- so an|die Chri-|sten- heit,|und|spricht täg- lich mit|In- nig-|keit.|

